assets/Hear-no-evil monkey/Flat/hear-no-evil_monkey_flat.svg

<svg width="32" height="32" viewBox="0 0 32 32" fill="none" xmlns="http://www.w3.org/2000/svg">
<path d="M6.5 20C9.53757 20 12 17.5376 12 14.5C12 11.4624 9.53757 9 6.5 9C3.46243 9 1 11.4624 1 14.5C1 17.5376 3.46243 20 6.5 20Z" fill="#A56953"/>
<path d="M25.5 20C28.5376 20 31 17.5376 31 14.5C31 11.4624 28.5376 9 25.5 9C22.4624 9 20 11.4624 20 14.5C20 17.5376 22.4624 20 25.5 20Z" fill="#A56953"/>
<path d="M4 14C4 7.92487 8.92487 3 15 3H17C23.0751 3 28 7.92487 28 14V16C28 22.0751 23.0751 27 17 27H15C8.92487 27 4 22.0751 4 16V14Z" fill="#7D4533"/>
<path d="M11.4844 6.46875C9.00772 6.46875 7 8.47647 7 10.9531V11.0938C7 12.6893 7.83324 14.0902 9.08832 14.885C9.0302 15.2481 9 15.6205 9 16C9 19.866 12.134 23 16 23C19.866 23 23 19.866 23 16C23 15.6205 22.9698 15.2481 22.9117 14.885C24.1668 14.0902 25 12.6893 25 11.0938V10.9531C25 8.47647 22.9923 6.46875 20.5156 6.46875H11.4844Z" fill="#E39D89"/>
<path d="M16 21.5C17.6569 21.5 19 19.933 19 18H13C13 19.933 14.3431 21.5 16 21.5Z" fill="#BB1D80"/>
<path d="M13.5 15.75C13.5 15.0596 14.0596 14.5 14.75 14.5H17.25C17.9404 14.5 18.5 15.0596 18.5 15.75V15.75C18.5 16.4404 17.9404 17 17.25 17H14.75C14.0596 17 13.5 16.4404 13.5 15.75V15.75Z" fill="#FF8687"/>
<path d="M15.5 16C15.5 16.2761 15.2761 16.5 15 16.5C14.7239 16.5 14.5 16.2761 14.5 16C14.5 15.7239 14.7239 15.5 15 15.5C15.2761 15.5 15.5 15.7239 15.5 16Z" fill="#1C1C1C"/>
<path d="M17.5 16C17.5 16.2761 17.2761 16.5 17 16.5C16.7239 16.5 16.5 16.2761 16.5 16C16.5 15.7239 16.7239 15.5 17 15.5C17.2761 15.5 17.5 15.7239 17.5 16Z" fill="#1C1C1C"/>
<path d="M12.7422 11C12.3323 11 12 11.3323 12 11.7422V13.2578C12 13.6677 12.3323 14 12.7422 14H12.7578C13.1677 14 13.5 13.6677 13.5 13.2578V11.7422C13.5 11.3323 13.1677 11 12.7578 11H12.7422Z" fill="#1C1C1C"/>
<path d="M19.2422 11C18.8323 11 18.5 11.3323 18.5 11.7422V13.2578C18.5 13.6677 18.8323 14 19.2422 14H19.2578C19.6677 14 20 13.6677 20 13.2578V11.7422C20 11.3323 19.6677 11 19.2578 11H19.2422Z" fill="#1C1C1C"/>
<path d="M1 10.75C1 9.7835 1.7835 9 2.75 9C3.7165 9 4.5 9.7835 4.5 10.75V11.025C5.07056 11.1408 5.5 11.6453 5.5 12.25V18H3V16H1V10.75Z" fill="#E39D89"/>
<path d="M31 10.75C31 9.7835 30.2165 9 29.25 9C28.2835 9 27.5 9.7835 27.5 10.75V11.025C26.9294 11.1408 26.5 11.6453 26.5 12.25V18H29V16H31V10.75Z" fill="#E39D89"/>
<path d="M1 26.49C1 28.52 3 30 5 30C7.03 30 9 28.52 9 26.49V20C9 17.5 4.5 15.5 1 15.5V26.49Z" fill="#8C5543"/>
<path d="M31 26.49C31 28.52 29 30 27 30C24.97 30 23 28.52 23 26.49V20C23 17.5 27.5 15.5 31 15.5V26.49Z" fill="#8C5543"/>
</svg>

<svg xmlns="http://www.w3.org/2000/svg" width="32" height="32" fill="none"><path fill="#A56953" d="M6.5 20a5.5 5.5 0 1 0 0-11 5.5 5.5 0 0 0 0 11ZM25.5 20a5.5 5.5 0 1 0 0-11 5.5 5.5 0 0 0 0 11Z"/><path fill="#7D4533" d="M4 14C4 7.925 8.925 3 15 3h2c6.075 0 11 4.925 11 11v2c0 6.075-4.925 11-11 11h-2C8.925 27 4 22.075 4 16v-2Z"/><path fill="#E39D89" d="M11.484 6.469A4.484 4.484 0 0 0 7 10.953v.14a4.48 4.48 0 0 0 2.088 3.792 7 7 0 1 0 13.823 0A4.48 4.48 0 0 0 25 11.094v-.14a4.484 4.484 0 0 0-4.484-4.485h-9.032Z"/><path fill="#BB1D80" d="M16 21.5c1.657 0 3-1.567 3-3.5h-6c0 1.933 1.343 3.5 3 3.5Z"/><path fill="#FF8687" d="M13.5 15.75c0-.69.56-1.25 1.25-1.25h2.5a1.25 1.25 0 1 1 0 2.5h-2.5c-.69 0-1.25-.56-1.25-1.25Z"/><path fill="#1C1C1C" d="M15.5 16a.5.5 0 1 1-1 0 .5.5 0 0 1 1 0ZM17.5 16a.5.5 0 1 1-1 0 .5.5 0 0 1 1 0ZM12.742 11a.742.742 0 0 0-.742.742v1.516c0 .41.332.742.742.742h.016c.41 0 .742-.332.742-.742v-1.516a.742.742 0 0 0-.742-.742h-.016ZM19.242 11a.742.742 0 0 0-.742.742v1.516c0 .41.332.742.742.742h.016c.41 0 .742-.332.742-.742v-1.516a.742.742 0 0 0-.742-.742h-.016Z"/><path fill="#E39D89" d="M1 10.75a1.75 1.75 0 1 1 3.5 0v.275c.57.116 1 .62 1 1.225V18H3v-2H1v-5.25ZM31 10.75a1.75 1.75 0 1 0-3.5 0v.275c-.57.116-1 .62-1 1.225V18H29v-2h2v-5.25Z"/><path fill="#8C5543" d="M1 26.49C1 28.52 3 30 5 30c2.03 0 4-1.48 4-3.51V20c0-2.5-4.5-4.5-8-4.5v10.99ZM31 26.49c0 2.03-2 3.51-4 3.51-2.03 0-4-1.48-4-3.51V20c0-2.5 4.5-4.5 8-4.5v10.99Z"/></svg>
